X: 32311
T: Pigeon On The Gate, The
R: reel
M: 4/4
K: Edorian
|:BE~E2 BdcA|BABd BAFE|D2FD ADFD|DEFA BAFA|
BE~E2 BdcA|BABd BAFE|DEFA defe|dBAF FEE2:|
|:Beed efed|B/c/def gfed|BAFA dcdB|AGFE DEFA|
Beed efed|B/c/def g2fg|affe fdec|dBAF EEE2:|

